styles/1/Numix/256x256/places/default-folder-open.svg

<?xml version="1.0" encoding="UTF-8" standalone="no"?>
<svg
   xmlns:dc="http://purl.org/dc/elements/1.1/"
   xmlns:cc="http://creativecommons.org/ns#"
   xmlns:rdf="http://www.w3.org/1999/02/22-rdf-syntax-ns#"
   xmlns:svg="http://www.w3.org/2000/svg"
   xmlns="http://www.w3.org/2000/svg"
   xmlns:sodipodi="http://sodipodi.sourceforge.net/DTD/sodipodi-0.dtd"
   xmlns:inkscape="http://www.inkscape.org/namespaces/inkscape"
   width="256px"
   height="256px"
   viewBox="0 0 256 256"
   version="1.1"
   id="svg2"
   inkscape:version="0.91 r"
   sodipodi:docname="blue-folder-open.svg">
  <metadata
     id="metadata13">
    <rdf:RDF>
      <cc:Work
         rdf:about="">
        <dc:format>image/svg+xml</dc:format>
        <dc:type
           rdf:resource="http://purl.org/dc/dcmitype/StillImage" />
      </cc:Work>
    </rdf:RDF>
  </metadata>
  <defs
     id="defs11" />
  <sodipodi:namedview
     pagecolor="#ffffff"
     bordercolor="#666666"
     borderopacity="1"
     objecttolerance="10"
     gridtolerance="10"
     guidetolerance="10"
     inkscape:pageopacity="0"
     inkscape:pageshadow="2"
     inkscape:window-width="841"
     inkscape:window-height="480"
     id="namedview9"
     showgrid="false"
     inkscape:zoom="0.921875"
     inkscape:cx="128"
     inkscape:cy="128"
     inkscape:window-x="0"
     inkscape:window-y="30"
     inkscape:window-maximized="0"
     inkscape:current-layer="svg2" />
  <path
     inkscape:connector-curvature="0"
     id="path5"
     d="m 24.25,40.003906 c -4.515625,0.441406 -8.324219,4.710938 -8.25,9.25 L 16,206.75 c -0.05469,4.85937 4.394531,9.30469 9.25,9.25 l 205.5,0 c 4.85937,0.0547 9.30469,-4.39063 9.25,-9.25 l 0,-141.496094 c 0.0547,-4.859375 -4.39063,-9.308594 -9.25,-9.25 l -78.75,0 0,-6.75 c 0.0547,-4.777344 -4.22656,-9.175781 -9,-9.25 l -117.75,0 c -0.332031,-0.01953 -0.664062,-0.01953 -1,0 z m 0,0"
     style="fill:#c4905e;fill-opacity:1;fill-rule:nonzero;stroke:none;opacity:0.4" />
  <path
     inkscape:connector-curvature="0"
     id="path7"
     d="m 24.25,112.00391 c -4.515625,0.4414 -8.324219,4.71093 -8.25,9.25 L 16,206.75 c -0.05469,4.85937 4.394531,9.30469 9.25,9.25 l 205.5,0 c 4.85937,0.0547 9.30469,-4.39063 9.25,-9.25 l 0,-69.49609 c 0.0547,-4.85938 -4.39063,-9.3086 -9.25,-9.25 l -78.75,0 0,-6.75 c 0.0547,-4.77735 -4.22656,-9.17578 -9,-9.25 l -117.75,0 c -0.332031,-0.0195 -0.664062,-0.0195 -1,0 z m 0,0"
     style="fill:#c4905e;fill-opacity:1;fill-rule:nonzero;stroke:none" />
</svg>

<svg xmlns="http://www.w3.org/2000/svg" xmlns:xlink="http://www.w3.org/1999/xlink" width="256px" height="256px" viewBox="0 0 256 256" version="1.1">
<g id="surface1">
<path style=" stroke:none;fill-rule:nonzero;fill:rgb(76.470588%,55.686275%,36.470588%);fill-opacity:0.4;" d="M 24.25 40.003906 C 19.734375 40.445312 15.925781 44.714844 16 49.253906 L 16 206.75 C 15.945312 211.609375 20.394531 216.054688 25.25 216 L 230.75 216 C 235.609375 216.054688 240.054688 211.609375 240 206.75 L 240 65.253906 C 240.054688 60.394531 235.609375 55.945312 230.75 56.003906 L 152 56.003906 L 152 49.253906 C 152.054688 44.476562 147.773438 40.078125 143 40.003906 L 25.25 40.003906 C 24.917969 39.984375 24.585938 39.984375 24.25 40.003906 Z M 24.25 40.003906 "/>
<path style=" stroke:none;fill-rule:nonzero;fill:rgb(76.862745%,56.470588%,36.862745%);fill-opacity:1;" d="M 24.25 112.003906 C 19.734375 112.445312 15.925781 116.714844 16 121.253906 L 16 206.75 C 15.945312 211.609375 20.394531 216.054688 25.25 216 L 230.75 216 C 235.609375 216.054688 240.054688 211.609375 240 206.75 L 240 137.253906 C 240.054688 132.394531 235.609375 127.945312 230.75 128.003906 L 152 128.003906 L 152 121.253906 C 152.054688 116.476562 147.773438 112.078125 143 112.003906 L 25.25 112.003906 C 24.917969 111.984375 24.585938 111.984375 24.25 112.003906 Z M 24.25 112.003906 "/>
</g>
</svg>
